packages/react/src/components/base/Icon/assets/icon-lock.svg

<svg width="24" height="24" viewBox="0 0 24 24" xmlns="http://www.w3.org/2000/svg" fill="currentColor"> <path d="M20 7.125H17.375V5.25C17.375 3.95707 16.8614 2.71709 15.9471 1.80285C15.0329 0.888615 13.7929 0.375 12.5 0.375C11.2071 0.375 9.96709 0.888615 9.05285 1.80285C8.13861 2.71709 7.625 3.95707 7.625 5.25V7.125H5C4.50272 7.125 4.02581 7.32254 3.67417 7.67417C3.32254 8.02581 3.125 8.50272 3.125 9V19.5C3.125 19.9973 3.32254 20.4742 3.67417 20.8258C4.02581 21.1775 4.50272 21.375 5 21.375H20C20.4973 21.375 20.9742 21.1775 21.3258 20.8258C21.6775 20.4742 21.875 19.9973 21.875 19.5V9C21.875 8.50272 21.6775 8.02581 21.3258 7.67417C20.9742 7.32254 20.4973 7.125 20 7.125ZM9.875 5.25C9.875 4.55381 10.1516 3.88613 10.6438 3.39384C11.1361 2.90156 11.8038 2.625 12.5 2.625C13.1962 2.625 13.8639 2.90156 14.3562 3.39384C14.8484 3.88613 15.125 4.55381 15.125 5.25V7.125H9.875V5.25ZM19.625 19.125H5.375V9.375H19.625V19.125Z"/> </svg>

<svg viewBox="0 0 24 24" xmlns="http://www.w3.org/2000/svg" aria-hidden="true" fill="currentColor"><path d="M20 7.125h-2.625V5.25a4.875 4.875 0 1 0-9.75 0v1.875H5A1.875 1.875 0 0 0 3.125 9v10.5A1.875 1.875 0 0 0 5 21.375h15a1.875 1.875 0 0 0 1.875-1.875V9A1.875 1.875 0 0 0 20 7.125M9.875 5.25a2.625 2.625 0 0 1 5.25 0v1.875h-5.25zm9.75 13.875H5.375v-9.75h14.25z"/></svg>
